X:1
T:8 Lieder und Gesänge, Op.57
T:Strahlt zuweilen auch ein mildes Licht
T:6. Strahlt zuweilen auch ein mildes Licht
T:Johannes Brahms
T:Georg Friedrich Daumer
T:8 Lieder und Gesänge, Op.57
T:Creative Commons copyright waiver (CC0 1.0 Universal) 
T:Creative Commons copyright waiver (CC0 1.0 Universal) 
C:Johannes Brahms
Z:Georg Friedrich Daumer
Z:Creative Commons copyright waiver (CC0 1.0 Universal)
Z:
L:1/8
M:6/8
K:E
V:1 treble nm="Singstimme\nVoice"
V:1
 z6 | z2 z Bde | c2 e B2 d | cAG G2 F | A2 A G2 e | dcB B2 ^A | B2 z z2 z | B2 B =c2 ^c | %8
w: |Strahlt * zu-|wei- len auch ein|mil- * des Licht *|auf mich hin aus|die- * sem An- ge-|sicht|ach, es kön- nen|
 =d3- d2 ^d | e2 B =c2 e | f2 ^c d2 B | e2 =c A2 F | e=cA =G2 F | E2 z z2 z | z2 z Bde | %15
w: auch * wohl|Huld- * ge- *|bär- * den *|ma- chen, dass uns|fast * das Her- ze|bricht.|Was * die|
 ^c2 e B2 d | cAG G2 F | A2 B A2 e | e=d=c cBA | B2 z z2 z | =c2 B ^c2 B | e2 d f3- | f2 d c2 B | %23
w: Lie- be sucht, um|froh * zu wer- den,|das ver- ra- ten|die- * se Bli- * che|nicht,|das ver- ra- ten|die- se Bli-|* * cke *|
 B2 z z2 z | z6 | z6 |] %26
w: nicht.|||

